X: 1
T: All The Way To Galway
M: 2/4
L: 1/8
R: march
K: Dmix
d>e fd|cA A>c|BG GA/B/|cA A2|d>e fd|cA Ac|BG AF|D2 D2:|
|:A>B AG|AB c2|G>A GF|EF GE|A>B AG|AB cA|BG AF|D2 D2:|
